X:1
T: Here's a Health to them that's awa'
C: 
R:Jig
Q:180
K:D
M:6/8
L:1/16
f4e2|:d4A2 B2A2F2|A6 f4e2|d4A2 B2g2f2|e6f4e2|
d4A2 B2c2d2|c2B2A2 d4A2|F2D2F2 E2D2E2|1D6f4e2:|2D6D4D2|
|:A2A2A2 B2A2F2|A6 z4D2|A4AA B2g2f2|e6z4D2|
A4AA B2c2d2|c2B2A2 d4A2|F2D2F2 E2D2E2|1D6D4D2:|2D6:|
